**kern
*clefG2
*k[]
*M4/4
=1
*^
1cc 1ee 1gg	2d
.	2c
=2	=2
1g 1cc 1ee	2f
.	2e
=3||	=3||
1g 1ee	2d
.	2c
=4	=4
1g 1cc	2f
.	2e
=5||	=5||
1cc 1ee 1gg	4r
.	4d
.	2c
=6	=6
1g 1cc 1ee	4r
.	4f
.	2e
=7||	=7||
*^	*^
4r	2.cc	4r	1c
4dd#X	.	4f#X\	.
2ee	.	2g\	.
.	4b	.	.
=8	=8	=8	=8
4r	1a	4r	2.F\
4cc#X	.	4e\	.
2dd	.	2d\	.
.	.	.	4A\
*	*	*v	*v
!!linebreak:original
=9	=9	=9
4r	4r	1G
4a#X 4aan	4c#X	.
2b 2gg	4d	.
.	4d#X	.
=10	=10	=10
4r	1e 1g	4r
4dd	.	4B\
2cc	.	2c\
*v	*v	*v
==
*-
!!!system-decoration: [(s1
